X:1
T:Si amaramente piansi
T:Lodovico Agostini
T:Si amaramente piansi
C:Lodovico Agostini
%%score [ 1 2 3 4 ]
L:1/8
Q:1/4=104
M:4/2
K:F
V:1 treble nm="Soprano" snm="S"
V:2 treble nm="Alto" snm="A"
V:3 treble-8 nm="Tenor" snm="T"
V:4 bass nm="Bass" snm="B"
V:1
 z16 |[K:Eb] z16 | z16 | z4 c4 B4 A4 | B8 c8 | _d4 c4 z2 c4 c2 | c4 e8 d4 | c8 c4 A4 | G8 =A4 c4 | %9
w: |||Si a- ma- ra-|men- te|pian- si, Quan- do|di voi ben|mi- o, Ri-|ma- si ai|
 c12 =B4 | z8 G8- | G4 G4 z4 A4 | B4 c4 c6 c2 | B4 A4 _d8- | d4 c4 c8 | c4 z2 c2 c4 c4 | _d12 d4 | %17
w: las- so|pri-|* vo, Ch'a|pe- na sep- pi|s'e- ra mor-|* to o vi-|vo, Mi- ra- ste il|pian- to|
 B8 B8 | z4 c4 c4 B4 | G4 c4 B8 | B8 z4 B4 | e6 d2 c4 A4 | c6 B2 A2 G2 A4 | B8 z4 G4- | %24
w: ri- o,|E por- ger|qual- che a- i-|ta, Cer-|ca- ste al- la mia|vi- * * * *|ta, Ma|
 G2 G2 A4 B4 c4 | c4 e4 _d2 c2 c4 | c8 z4 A4 | A4 G8 G4 | G4 d4 e4 e4- | e2 d2 c2 B2 c4 c4 | %30
w: _ con- tra- ria vi|fu mia fie- ra stel-|la, Pe-|ro ch'al- tri|voi chiu- se in fos-|* * * * * ca|
 c8 c8 | z4 c4 c4 e4- | e2 e2 f2 f4 ed e4 | f8 z4 c4- | c2 c2 c4 e4 f4 | B4 c4 _d8- | d4 B4 c8 | %37
w: cel- la,|Vi- vro dun-|* que mai sem- * * *|pre, Pri-|* vo di voi in|do- lo- ro-|* se tem-|
 c8 z4 c4- | c2 c2 c4 e4 f4 | B4 c4 _d8- | d4 B4 c8 | =A16 |] %42
w: pre, Pri-|* vo di voi in|do- lo- ro-|* se tem-|pre.|
V:2
 z16 |[K:Eb] A8 F4 E4 | F12 G4 | A6 G2 F8- | F8 G8 | z4 A6 A2 A4 | A4 B4 B8 | A4 A8 F4- | %8
w: |Si a- ma- ra-|men- te|pian- * *|* si,|Quan- do di|voi ben mi-|o, Ri- ma-|
 F4 =E4 F8 | z4 G4 G8 | =E8 z4 E4- | E4 =E4 z4 F4 | G4 G4 A6 A2 | G4 F4 A4 A4 | B6 A2 G8 | %15
w: * * si|ai las-|so pri-|* vo, Ch'a|pe- na sep- pi|s'e- ra mor- to o|vi- * *|
 =A4 z2 A2 A4 A4 | B4 A2 G2 A4 A4 | G8 F8 | z4 A4 A4 F4 | E4 A4 F8 | G16- | G8 z4 E4 | %22
w: vo, Mi- ra- ste il|pian- * * * to|ri- o,|E por- ger|qual- che a- i-|ta,|_ Cer-|
 A6 G2 F4 F4 | G8 =E4 z2 E2- | E2 =E2 F4 G4 G4 | A4 B2 B4 A2 G4 | =A8 z4 F4 | F4 E8 E4 | %28
w: ca- ste al- la mia|vi- ta, Ma|_ con- tra- ria vi|fu mia fie- ra stel-|la, Pe-|ro ch'al- tri|
 D4 G6 G2 G4 | G4 A6 G2 F4- | F2 =ED E4 F8 | z4 G4 A4 B4 | c4 c4 c6 B2 | A8 A8 | z4 C6 C2 C4 | %35
w: voi chiu- se in fos-|ca cel- * *|* * * * la,|Vi- vro dun-|que mai sem- *|* pre,|Pri- vo di|
 E4 E4 F8 | F4 F8 =E4 | F8 F8 | z4 C6 C2 C4 | E4 E4 F6 F2 | F4 F4 =E8 | F16 |] %42
w: voi in do-|lo- ro- se|tem- pre,|Pri- vo di|voi in do- lo-|ro- se tem-|pre.|
V:3
 z16 |[K:Eb] z16 | z4 c4 d8 | e8 f8 | B4 f6 ed e4 | f4 z2 f4 f2 f4 | e4 g4 f8 | f12 c4 | c8 c8 | %9
w: ||Si a- ma-|ra- men-|te pian- * * *|si, Quan- do di|voi ben mi-|o, Ri-|ma- si|
 z4 e4 d8 | c8 z4 c4- | c4 c4 z4 c4 | e4 e4 e6 e2 | e4 c4 f8 | f4 f6 =ed e4 | f4 z2 f2 f4 f4 | %16
w: ai las-|so pri-|* vo, Ch'a|pe- na sep- pi|s'e- ra mor-|to o vi- * * *|vo, Mi- ra- ste il|
 f12 f4 | e12 d4 | z4 f4 e6 d2 | e4 f2 e4 dc d4 | e4 z2 B2 e6 d2 | c4 B4 c8- | c8 c8 | z8 c6 c2 | %24
w: pian- to|ri- o,|E por- ger|qual- che a- i- * * *|ta, Cer- ca- ste al-|la mia vi-|* ta,|Ma con-|
 c4 c4 e4 e4- | e4 g4 f2 f2 =e4 | f4 c4 c8 | c12 c4 | G8 e8- | e4 e4 A4 A4 | G8 =A8 | %31
w: tra- ria vi fu|_ mia fie- ra stel-|la, Pe- ro|ch'al- tri|voi chiu-|* se in fos- ca|cel- la,|
 z4 =e4 f4 g4 | a4 a4 g8 | f8 z2 c4 c2 | c4 e8 A4 | _G4 G4 A8- | A4 F4 G8 | =A8 z2 c4 c2 | %38
w: Vi- vro dun-|que mai sem-|pre, Pri- vo|di voi in|do- lo- ro-|* se tem-|pre, Pri- vo|
 c4 e8 A4 | _G4 G4 A8- | A4 F4 G8 | F16 |] %42
w: di voi in|do- lo- ro-|* se tem-|pre.|
V:4
 z16 |[K:Eb] z8 z4 C4 | B,4 A,4 B,8 | C8 _D8- | D8 C8 | z4 F,6 F,2 F,4 | A,4 E,4 B,8 | F,12 F,4 | %8
w: |Si a-|ma- ra- men-|te pian-|* si,|Quan- do di|voi ben mi-|o, Ri-|
 C,8 F,8 | z4 C4 G,8 | C,8 z4 C,4- | C,4 C,4 z4 F,4 | E,4 C,4 A,6 A,2 | E,4 F,4 _D,6 C,2 | %14
w: ma- si|ai las-|so pri-|* vo, Ch'a|pe- na sep- pi|s'e- ra mor- *|
 B,,4 F,4 C8 | F,4 z2 F,2 F,4 F,4 | _D,12 D,4 | E,2 F,2 G,2 A,2 B,8 | F,4 z2 F,2 A,4 B,4 | %19
w: * to o vi-|vo, Mi- ra- ste il|pian- to|ri- * * * *|o, E por- ger|
 C4 A,4 B,8 | E,8 z8 | z4 E,4 A,6 G,2 | F,4 C,4 F,8 | E,8 z4 C,4- | C,2 C,2 F,4 E,4 C,4 | %25
w: qual- che a- i-|ta,|Cer- ca- ste al-|la mia vi-|ta, Ma|_ con- tra- ria vi|
 A,4 E,4 B,2 F,2 C4 | F,8 z4 F,4 | F,4 C,6 C,2 C4- | C2 B,2 B,2 A,B, C4 C4- | C4 A,4 F,4 F,4 | %30
w: fu mia fie- ra stel-|la, Pe-|ro ch'al- tri voi|_ _ _ _ _ _ chiu-|* se in fos- ca|
 C,8 F,8 | z4 C,4 F,4 E,4 | A,4 F,4 C4 C4 | z4 F,6 F,2 F,4 | A,12 F,4 | E,4 E,4 _D,8- | %36
w: cel- la,|Vi- vro dun-|que mai sem- pre,|Pri- vo di|voi in|do- lo- ro-|
 D,4 _D,4 C,8 | F,4 F,6 F,2 F,4 | A,12 F,4 | E,4 E,4 _D,8- | D,4 _D,4 C,8 | F,16 |] %42
w: * se tem-|pre, Pri- vo di|voi in|do- lo- ro-|* se tem-|pre.|

